src/assets/duotone/CardRemove1.svg

<?xml version="1.0" encoding="UTF-8"?>
<svg width="24" height="24" viewBox="0 0 24 24" xmlns="http://www.w3.org/2000/svg">
 <path d="m22 7.77v1.23h-20v-1.46c0-2.29 1.86-4.14 4.15-4.14h9.85v2.57c0 1.27 0.76 2.03 2.03 2.03h2.94c0.4 0 0.74-0.07 1.03-0.23z" opacity=".4"/>
 <path d="m2 9v7.46c0 2.29 1.86 4.14 4.15 4.14h11.7c2.29 0 4.15-1.85 4.15-4.14v-7.46h-20zm6 8.25h-2c-0.41 0-0.75-0.34-0.75-0.75s0.34-0.75 0.75-0.75h2c0.41 0 0.75 0.34 0.75 0.75s-0.34 0.75-0.75 0.75zm6.5 0h-4c-0.41 0-0.75-0.34-0.75-0.75s0.34-0.75 0.75-0.75h4c0.41 0 0.75 0.34 0.75 0.75s-0.34 0.75-0.75 0.75z"/>
 <path d="m20.97 1h-2.94c-1.27 0-2.03 0.76-2.03 2.03v2.94c0 1.27 0.76 2.03 2.03 2.03h2.94c1.27 0 2.03-0.76 2.03-2.03v-2.94c0-1.27-0.76-2.03-2.03-2.03zm0.37 4.49c0.11 0.13 0.17 0.27 0.17 0.44 0 0.14-0.06 0.3-0.17 0.41-0.23 0.23-0.62 0.23-0.85 0l-0.99-0.99-0.98 1c-0.23 0.23-0.62 0.23-0.86-0.01-0.23-0.23-0.23-0.62 0-0.85l1-0.98-0.99-0.99c-0.23-0.23-0.24-0.62-0.01-0.86s0.62-0.23 0.86 0.01l0.98 0.99 1-1c0.23-0.23 0.62-0.23 0.85 0 0.11 0.13 0.16 0.28 0.17 0.44 0 0.14-0.06 0.3-0.16 0.42l-1 1 0.98 0.97z"/>
</svg>

<svg width="24" height="24" viewBox="0 0 24 24"  xmlns="http://www.w3.org/2000/svg">
<path opacity="0.4" d="M22 7.77002V9.00002H2V7.54002C2 5.25002 3.86 3.40002 6.15 3.40002H16V5.97002C16 7.24002 16.76 8.00002 18.03 8.00002H20.97C21.37 8.00002 21.71 7.93002 22 7.77002Z" />
<path d="M2 9V16.46C2 18.75 3.86 20.6 6.15 20.6H17.85C20.14 20.6 22 18.75 22 16.46V9H2ZM8 17.25H6C5.59 17.25 5.25 16.91 5.25 16.5C5.25 16.09 5.59 15.75 6 15.75H8C8.41 15.75 8.75 16.09 8.75 16.5C8.75 16.91 8.41 17.25 8 17.25ZM14.5 17.25H10.5C10.09 17.25 9.75 16.91 9.75 16.5C9.75 16.09 10.09 15.75 10.5 15.75H14.5C14.91 15.75 15.25 16.09 15.25 16.5C15.25 16.91 14.91 17.25 14.5 17.25Z" />
<path d="M20.97 1H18.03C16.76 1 16 1.76 16 3.03V5.97C16 7.24 16.76 8 18.03 8H20.97C22.24 8 23 7.24 23 5.97V3.03C23 1.76 22.24 1 20.97 1ZM21.34 5.49C21.45 5.62 21.51 5.76 21.51 5.93C21.51 6.07 21.45 6.23 21.34 6.34C21.11 6.57 20.72 6.57 20.49 6.34L19.5 5.35L18.52 6.35C18.29 6.58 17.9 6.58 17.66 6.34C17.43 6.11 17.43 5.72 17.66 5.49L18.66 4.51L17.67 3.52C17.44 3.29 17.43 2.9 17.66 2.66C17.89 2.42 18.28 2.43 18.52 2.67L19.5 3.66L20.5 2.66C20.73 2.43 21.12 2.43 21.35 2.66C21.46 2.79 21.51 2.94 21.52 3.1C21.52 3.24 21.46 3.4 21.36 3.52L20.36 4.52L21.34 5.49Z" />
</svg>
